X:1
T:Psalm 16 b
C:Bewaar my tog, o God, op wie 'k vertrou! ...(5)
C:AC van Velden 1919
L:1/2
M:2/2
K:Eb
yy B| A G| F A| G F| G F| E 
yyyy E| c B| A B| G E| A c| B2| A
yyyy B| A G| F A| G F| G F| E
yyyy E| c B| A B| G E| A c| B2| A
yyyy A| G F| B B| e A| _d c| B2| c
yyyy c| B =d| e c| A G| F E| (E D) |E |]

